symbols/web/change_circle/materialsymbolsrounded/change_circle_wght700gradN25fill1_24px.svg

<svg xmlns="http://www.w3.org/2000/svg" height="24" width="24"><path d="M15.525 14.225q.4.2.763.075.362-.125.512-.525.15-.45.25-.913.1-.462.1-.862 0-1.025-.387-1.95-.388-.925-1.138-1.675Q15 7.725 14.15 7.35q-.85-.375-1.825-.45l.25-.25q.25-.275.25-.613 0-.337-.275-.612-.25-.25-.6-.25t-.6.25l-1.875 1.85q-.225.25-.225.562 0 .313.225.538l1.85 1.825q.25.275.613.262.362-.012.612-.262.275-.275.275-.625t-.275-.625l-.275-.25q.65.075 1.188.3.537.225.937.6.475.475.725 1.088.25.612.25 1.287 0 .275-.05.562-.05.288-.175.613-.1.325-.012.612.087.288.387.463Zm-4.05 4.325q.25.275.6.275t.6-.275l1.85-1.85q.25-.225.25-.537 0-.313-.25-.563L12.7 13.775q-.275-.275-.625-.263-.35.013-.6.288-.275.25-.275.6t.275.625l.275.275q-.65-.075-1.2-.312-.55-.238-.95-.588-.475-.475-.713-1.1-.237-.625-.237-1.275 0-.275.038-.575.037-.3.162-.6.125-.325.013-.662-.113-.338-.438-.488-.375-.2-.687-.063-.313.138-.488.488-.175.5-.275.975-.1.475-.1.9 0 1 .375 1.938.375.937 1.125 1.687.625.65 1.488 1.012.862.363 1.812.438l-.25.275q-.25.25-.237.6.012.35.287.6ZM12 22.6q-2.225 0-4.15-.825-1.925-.825-3.362-2.263-1.438-1.437-2.263-3.362T1.4 12q0-2.25.825-4.175.825-1.925 2.263-3.35Q5.925 3.05 7.85 2.225T12 1.4q2.25 0 4.175.825 1.925.825 3.35 2.25t2.25 3.35Q22.6 9.75 22.6 12q0 2.225-.825 4.15-.825 1.925-2.25 3.362-1.425 1.438-3.35 2.263T12 22.6Z"/></svg>

<svg xmlns="http://www.w3.org/2000/svg" height="24" width="24"><path d="M15.525 14.225Q15.925 14.425 16.288 14.3Q16.65 14.175 16.8 13.775Q16.95 13.325 17.05 12.862Q17.15 12.4 17.15 12Q17.15 10.975 16.763 10.05Q16.375 9.125 15.625 8.375Q15 7.725 14.15 7.35Q13.3 6.975 12.325 6.9L12.575 6.65Q12.825 6.375 12.825 6.037Q12.825 5.7 12.55 5.425Q12.3 5.175 11.95 5.175Q11.6 5.175 11.35 5.425L9.475 7.275Q9.25 7.525 9.25 7.837Q9.25 8.15 9.475 8.375L11.325 10.2Q11.575 10.475 11.938 10.462Q12.3 10.45 12.55 10.2Q12.825 9.925 12.825 9.575Q12.825 9.225 12.55 8.95L12.275 8.7Q12.925 8.775 13.463 9Q14 9.225 14.4 9.6Q14.875 10.075 15.125 10.688Q15.375 11.3 15.375 11.975Q15.375 12.25 15.325 12.537Q15.275 12.825 15.15 13.15Q15.05 13.475 15.138 13.762Q15.225 14.05 15.525 14.225ZM11.475 18.55Q11.725 18.825 12.075 18.825Q12.425 18.825 12.675 18.55L14.525 16.7Q14.775 16.475 14.775 16.163Q14.775 15.85 14.525 15.6L12.7 13.775Q12.425 13.5 12.075 13.512Q11.725 13.525 11.475 13.8Q11.2 14.05 11.2 14.4Q11.2 14.75 11.475 15.025L11.75 15.3Q11.1 15.225 10.55 14.988Q10 14.75 9.6 14.4Q9.125 13.925 8.887 13.3Q8.65 12.675 8.65 12.025Q8.65 11.75 8.688 11.45Q8.725 11.15 8.85 10.85Q8.975 10.525 8.863 10.188Q8.75 9.85 8.425 9.7Q8.05 9.5 7.738 9.637Q7.425 9.775 7.25 10.125Q7.075 10.625 6.975 11.1Q6.875 11.575 6.875 12Q6.875 13 7.25 13.938Q7.625 14.875 8.375 15.625Q9 16.275 9.863 16.637Q10.725 17 11.675 17.075L11.425 17.35Q11.175 17.6 11.188 17.95Q11.2 18.3 11.475 18.55ZM12 22.6Q9.775 22.6 7.85 21.775Q5.925 20.95 4.488 19.512Q3.05 18.075 2.225 16.15Q1.4 14.225 1.4 12Q1.4 9.75 2.225 7.825Q3.05 5.9 4.488 4.475Q5.925 3.05 7.85 2.225Q9.775 1.4 12 1.4Q14.25 1.4 16.175 2.225Q18.1 3.05 19.525 4.475Q20.95 5.9 21.775 7.825Q22.6 9.75 22.6 12Q22.6 14.225 21.775 16.15Q20.95 18.075 19.525 19.512Q18.1 20.95 16.175 21.775Q14.25 22.6 12 22.6Z"/></svg>
